icons/cost-increase.svg

<?xml version="1.0" encoding="UTF-8"?><svg xmlns="http://www.w3.org/2000/svg" viewBox="0 0 50 50"><g id="uuid-a990296f-3ab6-49d1-b5fe-a7d44a71eb6e"><path d="M38.04,13.49L26.21,1.65c-.42-.42-.98-.66-1.57-.64-.6-.02-1.16,.22-1.58,.64L11.23,13.49c-.2,.2-.31,.47-.31,.75,0,.28,.11,.55,.31,.75l2.11,2.11c.41,.41,1.09,.42,1.5,0l7.23-7.23V27.27c0,.28,.22,.5,.5,.5h4.12c.28,0,.5-.22,.5-.5V9.87l7.23,7.23c.41,.42,1.09,.42,1.5,0l2.11-2.11c.2-.2,.31-.47,.31-.75s-.11-.55-.31-.75Zm-2.91,2.91l-8.09-8.09c-.14-.14-.36-.19-.54-.11-.19,.08-.31,.26-.31,.46V26.77h-3.12V8.67c0-.2-.12-.38-.31-.46-.19-.08-.4-.03-.54,.11l-8.18,8.09-2.11-2.2L23.77,2.36c.23-.23,.54-.35,.88-.35,.32,0,.63,.12,.86,.35l11.83,11.92-2.2,2.11Z"/><path d="M25.31,38.57c-1.97-.57-2.66-.86-2.66-1.9,0-.96,.61-1.54,1.86-1.54,.7,0,1.18,.17,1.51,.46,.56,.5,.63,1.18,.64,1.34,.41,0,1.09,0,1.49,0,.32,0,.97,0,1.29,0-.15-2.04-1.35-3.64-4.08-3.91v-1.84h-1.43v1.82c-2.34,.21-4.09,1.57-4.09,3.94,0,2,1.1,3.16,4.32,4.05,2.01,.57,2.77,1.09,2.77,2.35,0,.98-.55,1.67-2.13,1.67-1.48,0-2.3-.82-2.5-2.08h-2.8c.15,2.52,1.83,4,4.44,4.23v1.83h1.43v-1.83c3.11-.24,4.44-2.04,4.44-4.15,0-1.99-.93-3.41-4.47-4.44Z"/></g><g id="uuid-f2de4c4f-3ec9-4548-b600-b94564dcacc3"><text transform="translate(-.06 55.07)" font-family="Roboto-Regular, Roboto" font-size="6"><tspan x="0" y="0">cost-inc</tspan><tspan x="21.18" y="0" letter-spacing="0em">r</tspan><tspan x="23.15" y="0">ease</tspan></text></g></svg>

<svg xmlns="http://www.w3.org/2000/svg" viewBox="0 0 50 50"><g id="a6d203ab-bc0f-4608-99dd-7c98ac63eef0" data-name="ICONS"><path d="M38,13.49,26.21,1.65a2.26,2.26,0,0,0-3.15,0L11.23,13.49a1,1,0,0,0,0,1.5l2.11,2.12a1.07,1.07,0,0,0,1.5,0l7.24-7.24v17.4a.5.5,0,0,0,.5.5h4.11a.5.5,0,0,0,.5-.5V9.87l7.24,7.24a1.07,1.07,0,0,0,1.5,0L38,15a1,1,0,0,0,0-1.5ZM35.13,16.4,27.05,8.31a.53.53,0,0,0-.55-.11.52.52,0,0,0-.31.47v18.1H23.08V8.67a.52.52,0,0,0-.31-.47.53.53,0,0,0-.55.11L14.05,16.4l-2.12-2.21L23.77,2.36A1.18,1.18,0,0,1,24.64,2a1.21,1.21,0,0,1,.86.35L37.34,14.28Z"/><path d="M25.31,38.57c-2-.57-2.66-.87-2.66-1.9s.61-1.54,1.86-1.54a2.18,2.18,0,0,1,1.5.46,2,2,0,0,1,.64,1.34h2.78c-.14-2-1.35-3.64-4.08-3.91V31.19H23.92V33c-2.34.2-4.09,1.57-4.09,3.93,0,2,1.1,3.16,4.31,4.06,2,.57,2.77,1.08,2.77,2.34,0,1-.55,1.67-2.13,1.67a2.31,2.31,0,0,1-2.5-2.08h-2.8c.16,2.52,1.83,4,4.44,4.23V49h1.43V47.16c3.11-.24,4.44-2,4.44-4.15S28.86,39.6,25.31,38.57Z"/></g><g id="fdf8baa1-9c72-48d8-ba12-a3dba4a951cc" data-name="LABELS"><text transform="translate(-0.06 55.07)" font-size="6" font-family="Roboto-Regular, Roboto">cost-inc<tspan x="21.18" y="0" letter-spacing="-0.01em">r</tspan><tspan x="23.15" y="0">ease</tspan></text></g></svg>
